X:1
T:Come and let us live
T:Samuel Webbe Jr. (c. 1770–1843) 
T:Come and let us live
T:4 part glee
T:Copyright © 
T:Copyright © 
T:Copyright © 
T:Copyright © 
T:Copyright © 
T:Copyright © 
T:Copyright © 
T:Copyright © 
C:Samuel Webbe Jr. (c. 1770–1843)
Z:Copyright ©
%%score [ 1 2 3 ( 4 5 ) ]
L:1/8
M:4/4
K:D
V:1 treble nm="[Counter- tenor]" snm="A."
V:2 treble-8 transpose=-12 nm="[Tenor]" snm="T."
V:3 treble-8 transpose=-12 nm="[Tenor]" snm="T."
V:4 bass nm="Bass" snm="B."
V:5 bass 
V:1
"^Spiritoso" .F2 z2 .E2 z2 | D4- DA,DE | F6 FD | A3 G F2 DD | G6 GG | B3 A GFED | C2!p! CC F4- | %7
w: Come, come,|come _ and let us|live, let us|live, my dear, let us|love, let us|love and ne- ver, ne- ver|fear what the sour-|
 F2 ^A,2 B,2 B,2 | C4!f! F3 F | B3 B, B,2 A,2 | G,2!f! ED CA,CE | A A2 E CA,CE | A2 A4!f! A,A, | %13
w: * est fa- thers|say, bright- est|Sol that dies to-|day lives a- gain as blythe to-|mor- row, a- gain as blythe to-|mor- row, but if|
 _B,4 ^C4 | D6 E2 | =F2 ^C2 D2 _B,2 | A,6 A,2 | =F2 E2 D2 =C2 | =B,4 E3 E | =F2 E2 D2 =C2 | %20
w: we dark|sons, dark|sons of sor- row|set, O|then how long a|night shuts the|eyes of our short|
 B,4!pp! E3 E | A,2 =C2 E,2 ^G,2 | A,4 z4 ||[M:6/8]!f!"^Vivace" F2 F{G} FED | GE z AEG | FD z G3- | %26
w: light shuts the|eyes of our short|light.|Then let * mo- rous|kis- ses, a- mo- rous|kis- ses dwell|
 GFE F2 z | EF^G A2 z | E3- EF^G | A2 z z2 A, | A,2 A, D2 F | A3 E3 | F2 D (B,C)D | C2 A, C2 A, | %34
w: _ on our lips,|dwell on our lips,|dwell _ on our|lips. Be-|gin and tell a|thou- sand|and a hun- * dred|score, a hun- dred|
 D2 A, G2 E | F2 D G3- | G3 F3 | G3- G2 z | G2 G B2 A | G3 D2 z | z2 D B2 A | G2 F E2 D | %42
w: and a thou- sand|more, a thou-|* sand|more, _|'till a- no- ther|thou- sand,|a- no- ther|thou- sand smo- ther|
 C3- C2 C | F2 F ^G2 E | A E2- E2 E | A E2- E2 E | c A2- A2 C | (DE)F E2 E | C A,2- A,2 z | %49
w: that _ and|that wipe off an-|o- ther, _ an-|o- ther, _ an-|o- ther _ and|that _ wipe off an-|o- ther. _|
 A2 E (EF)=G | F2 D (DE)F | GGA B2 G | B,CD C2 A, | A3- AFD | C3 D3 | A3- AFD | A3 !fermata!A,3 || %57
w: Thus at last _ when|we have num- * bered|ma- ny a thou- sand,|ma- ny a hun- dred,|ma- * ny a|thou- sand,|ma- * ny a|hun- dred.|
[M:4/4] z4 z2 A,A, | GFED C2 EE | AGFE ^D3 D | EF G3 B, B>F | G3 C DE F2- | FA, A>E F2 A,A, | %63
w: We'll con-|found the reck- 'ning quite, we'll con-|found the reck- 'ning quite and|lose our- selves in wild de-|light, and lose our selves|_ in wild de- light, we'll con|
 FEFE FD A2- | A!ff!^G A3 G A>G | A2 !fermata!z2 z2"^Dolce" A,A, | F3 D C>B, B,2- | B,E^DA G>F E2 | %68
w: found the reck- 'ning quite and lose|_ our selves in wild de-|light. While our|joys so mul- ti- ply,|_ our joys so mul- ti- ply,|
 !fermata!z2 BB C2 D2 | (E2 A4) TG2 | F8 |] %71
w: as shall mock the|en- * vious|eye.|
V:2
 .d2 z2 .c2 z2 | A4- AAAc | d6 AA | A3 A A2 z2 | z ed=c B2 z2 | z2 gf edcB | A2 z2!p! z2 ee | %7
w: Come, come,|come _ and let us|live, let us|live, my dear,|and ne- ver fear,|let us love and ne- ver|fear what the|
 d2 f2 f2 ^e2 | f4!f! c3 c | B3 B B2 F2 | G2!f! ^GG AceG | A A2 ^G AEeG | A2 A4 z2 | z2 AA G2 _B2 | %14
w: sour- est fa- thers|say, bright- est|Sol that dies to-|day lives a- gain as blythe to-|mor- row, a- gain as blythe to-|mor- row,|but if we dark|
 A6 A2 | A2 G2 =F2 F2 | E6 A2 | A2 A2 A2 A2 | A4 A3 A | A2 A2 A2 A2 | A4!pp! ^G3 G | A2 A2 E2 E2 | %22
w: sons, dark|sons of sor- row|set, O|then how long a|night shuts the|eyes of our short|light shuts the|eyes of our short|
 E4 z4 ||[M:6/8]!f! d2 z (dc)d | Bed ce z | d3- dcB | c2 z d3- | dcB e2 z | z2 z d3- | dcB c2 z | %30
w: light.|Then, then _ let|a- mo- rous kis- ses|dwell _ on our|lips, dwell|_ on our lips,|dwell|_ on our lips|
 z6 | z2 e c2 G | F2 A B2 ^G | A3- A2 A | A3 A3 | A2 d d2 B | (AB)=c d2 c | B3- B2 z | B2 B d2 =c | %39
w: |be- gin and|tell a thou- sand|and _ a|hun- dred|score, a hun- dred|and _ a thou- sand|more, _|'till a- no- ther|
 B3 B2 z | z2 B (B^c)^d | e2 B B2 B | c2 e e3- | edc d2 d | dce B2 e | e2 c B2 e | e c2- c2 e | %47
w: thou- sand,|a- no- * ther|thou- sand smo- ther|that and that|_ _ wipe off an-|o- ther and that, and|that wipe off an-|o- ther, _ and|
 A2 d B2 B | A A2- A2 z | c2 e c2 A | d2 A d2 d | dd=c B2 B | eee e2 c | z6 | Aeg f2 f | z6 | %56
w: that wipe off an-|o- ther. _|Thus at last when|we have num- bered|ma- ny a thou- sand,|ma- ny a hun- dred,||ma- ny a hun- dred,||
 cec a2 !fermata!A ||[M:4/4] z8 | AAgf ed c2 | z2 (AB) =c2 z2 | B^dee e2 d2 | e2 z2 Acdd | %62
w: ma- ny a thou- sand.||We'll con- found the reck- 'ning quite|and _ lose,|lose our- selves in wild de-|light, lose our selves in|
 d2 c2 d2 AA | AAAA AA f2- | f^e!ff! f3 e f>e | f2 !fermata!z2 z4 | z8 | BBB^d e>d e2 | %68
w: wild de- light we'll con|found the reck- 'ning quite and lose|_ our selves in wild de-|light.||While our joys so mul- ti- ply,|
 !fermata!z2 ee A2 (Ad) | d4 Tc4 | d8 |] %71
w: as shall mock the _|en- vious|eye.|
V:3
 .A2 z2 .A2 z2 | F4- FFFA | D6 DD | F3 E D2 DD | G6 GG | B4- BBeB | c2 z2!p! z2 cc | B2 c2 d2 B2 | %8
w: Come, come,|come _ and let us|live, let us|live, my dear, let us|love, let us|love _ and ne- ver|fear what the|sour- est fa- thers|
 ^A4!f! A3 A | B3 F F2 F2 | E2 z2 z2!f! EE | E2 AB cecB | c2 c4 z2 | z2 DD G2 E2 | =F6 E2 | %15
w: say, bright- est|Sol that dies to-|day lives a-|gain, lives a- gain as blythe to-|mor- row,|but if we dark|sons, dark|
 D2 _B2 A2 D2 | E6 E2 | D2 A2 A2 E2 | =F4 E3 E | D2 A2 A2 E2 | =F4!pp! E3 E | E2 E2 E2 e2 | %22
w: sons of sor- row|set, O|then how long a|night shuts the|eyes of our short|light shuts the|eyes of our short|
 ^c4 z4 ||[M:6/8]!f! A2 z (FG)A | GBG AA z | A2 A Bcd | cA z D3 | EEe ec z | z2 z B3- | BA^G A2 z | %30
w: light.|Then, then _ let|a- mo- rous kis- ses|then let a- mo- rous|kis- ses, let|a- mo- rous kis- ses|dwell|_ on our lips.|
 z2 A F2 D | C2 E A2 c | d2 A ^G2 B | A3- A2 =G | F3 C3 | D3- D2 G | A3 A3 | G3- G2 z | G2 G G2 G | %39
w: Be- gin and|tell a thou- sand,|tell a hun- dred|score, _ a|hun- dred|and _ a|thou- sand|more, _|'till a- no- ther|
 G3 G2 z | z2 B B2 B | B2 B B2 B | A3- A2 A | A3 (B2 e) | e2 c ^G2 B | A3 ^G2 d | c c2- c2 A | %47
w: thou- sand,|a- no- ther|thou- sand smo- ther|that _ and|that, and _|that wipe off an-|o- ther, an|o- ther, _ and|
 A2 A A2 ^G | A A2- A2 z | z6 | A2 d A2 F | B2 d d2 d | B2 B A2 A | Aeg f2 f | z6 | Aeg f2 f | %56
w: that wipe off an-|o- ther. *||thus at last when|we have num- bered,|we have num- bered|ma- ny a thou- sand,||ma- ny a hun- dred,|
 ece c2 !fermata!A ||[M:4/4] z8 | z4 AAGF | EE=cB A2 z F | BAGG G2 F2 | E2 z E AGFF | F2 E2 D2 FA | %63
w: ma- ny a thou- sand.||We'll con- found the|reck- 'ning quite and lose, and|lose our- selves in wild de-|light, and lose our- selves in|wild de- light, we'll con|
 dcdc d3 d | d3 d!ff! dd d>d | d2 !fermata!z2 z4 | z2 DD G3 B | B2 B2 B>A G2 | %68
w: found the reck- 'ning quite and|lose our- selves in wild de-|light.|While our joys, our|joys so mul- ti- ply,|
 !fermata!z2 BB A2 (AF) | E6 TA2 | A8 |] %71
w: as shall mock the _|en- vious|eye.|
V:4
 .D,2 z2 .A,2 z2 | DDA,F, D,4- | D,D,F,A, D2 z2 | A,,A,,B,,C, D,2 z2 | z =CB,A, G,2 x2 | %5
w: Come, come,|come and let us live,|_ and let us live,|let us live my dear,|and ne- ver fear,|
 z2 E,F, G,G,G,^G, | A,2 z2!p! z2 ^A,A, | B,2 F,2 D,2 G,2 | F,4!f! F,3 E, | ^D,3 D, D,2 D,2 | %10
w: let us love and ne- ver|fear what the|sour- est fa- thers|say, bright- est|Sol that dies to-|
 E,2 z2!f! z2 E,D, | C,A,,C,E, A,CA,E, | C,A,,C,E, A,A,, z2 | z2 D,D, E,2 G,2 | %14
w: day lives a-|gain as blythe to- mor- row, lives a-|gain as blythe to- mor- row,|but if we dark|
 =F,2 A,,2 A,2 ^C,2 | D,2 E,2 =F,2 D,2 | ^C,6 C,2 | D,2 E,2 =F,2 E,2 | D,4 =C,3 C, | %19
w: sons, if we dark|sons of sor- row|set, O|then how long a|night shuts the|
 D,2 E,2 =F,2 E,2 | D,4!pp! D,3 D, | =C,2 A,,2 E,2 E,2 | A,,4 z4 ||[M:6/8]!f! D,2 D, D,E,F, | %24
w: eyes of our short|light shuts the|eyes of our short|light.|Then let a- mo- rous|
 E,G, z A,,C,A,, | D,F, z B,A,G, | A,2 z (A,B,)A, | ^G,A,B, CA, z | E,3- E,E,E, | A,,2 z z3 | %30
w: kis- ses, a- mo- rous|kis- ses dwell on our|lips, then _ let|a- mo- rous kis- ses|dwell _ on our|lips.|
 z2 z z2 A,, | A,,2 A,, C,2 E, | D,2 F, ^G,2 E, | A,2 C A,2 z | z6 | z2 =C, B,,2 G,, | %36
w: Be-|gin and tell a|thou- sand and a|hun- dred score,||a hun- dred|
 D,2 D, D,2 D, | G,,3- G,,2 z | G,2 G, G,2 G, | G,3 G,,2 z | z2 G, G,2 G, | G,2 G, G,2 ^G, | %42
w: and a thou- sand|more, _|'till a- no- ther|thou- sand,|a- no- ther|thou- sand smo- ther|
 A,2 E, C,2 A,, | D,3 B,3 | A, A,2 D3 | C C2 E,3 | A, A,,2- A,,2 =G, | (F,E,)D, E,2 E, | %48
w: that and that wipe|off, an-|o- ther, an-|o- ther, an-|o- ther, _ and|that _ wipe off an-|
 A, A,,2- A,,2 z | z2 z A,2 C, | (D,E,)F, F,2 D, | (B,2 A,) G,2 G, | G,2 ^G, A,2 A,, | z6 | %54
w: o- ther. _|Thus at|last _ when we have|num- * bered, when|we have num- bered||
 A,3- A,F,D, | C,2 C, D,D,D, | A,,3 !fermata!A,,3 ||[M:4/4] z8 | z2 A,,A,, G,F,E,D, | %59
w: ma- * ny a|thou- sand, ma- ny a|hun- dred.||We'll con- found the reck- 'ning|
 C,E,A,G, F,=CB,A, | G,F,E,=C, B,,3 B,, | E,B,A,G, F,E,D,B,, | A,,3 A,, D,2 D,D, | %63
w: quite, con- found the reck- 'ning quite and|lose our- selves in wild de-|light and lose, and lose our- selves in|wild de- light, we'll con|
 D,D,D,D, D,3 D, | D3 D,!ff! DD D>D | D2 !fermata!z2 z4 | z4 z2 B,,B,, | G,2 F,2 E,>E, E,2 | %68
w: found the reck- 'ning quite and|lose our- selves in wild de-|light.|While our|joys so mul- ti- ply,|
 !fermata!z2 G,,G,, G,E,F,D, | A,,6 TA,,2 | D,8 |] %71
w: as shall mock, shall mock the|en- vious|eye.|
V:5
 x8 | x8 | x8 | x8 | z =C,B,,A,, G,,2 z2 | x8 | x8 | x8 | x8 | x8 | x8 | x8 | x8 | x8 | x8 | x8 | %16
 x8 | x8 | x8 | x8 | x8 | x8 | x8 ||[M:6/8] x6 | x6 | x6 | x6 | x6 | x6 | x6 | x6 | x6 | x6 | x6 | %34
 x6 | x6 | x6 | x6 | x6 | x6 | x6 | x6 | x6 | x6 | x6 | x6 | x6 | x6 | x6 | x6 | x6 | x6 | x6 | %53
 x6 | x6 | x6 | x6 ||[M:4/4] x8 | x8 | x8 | x8 | x8 | x8 | x8 | x8 | x8 | x8 | x8 | x8 | x8 | x8 |] %71

